!!!OTL: WAS HELFEN MIR TAUSEND DUKATEN
!!!ARE: Europa, Mitteleuropa, Deutschland
!!!SCT: E1321
!!!YEM: Copyright 1995, estate of Helmut Schaffrath.
**kern
*ICvox
*Ivox
*M6/8
*k[b-]
*F:
{8c
=1
8f
8c
8f
8a
8f
8a
=2
4cc
8ff
8dd
8b-}
{8g
=3
8cc
8a
8f
8b-
8g
8e
=4
4.f
4r}
{8c
=5
8f
8c
8f
8a
8f
8a
=6
4cc
8ff
8dd
8b-}
{8g
=7
8cc
8a
8f
8b-
8g
8e
=8
4.f
4r}
{8cc
=9
8cc
8g
8g
8g
8f
8g
=10
4.a
4r}
{8cc
=11
8cc
8g
8g
8g
8f
8g
=12
4.a
4r}
{8c
=13
8f
8c
8f
8a
8f
8a
=14
4cc
8ff
8dd
8b-}
{8g
=15
8cc
8a
8f
8b-
8g
8e
=16
4.f
4r}
==
!!!AGN: Staende -, Soldaten -, Kriegs - Lied
!!!ONB: ESAC (Essen Associative Code) Database: ERK3
!!!AMT: compound duple
!!!AIN: vox
!!!EED: Helmut Schaffrath
!!!EEV: 1.0
*-
